z_dist/img/icons/interface/settings.svg

<svg width="64" height="64" viewBox="0 0 64 64" fill="none" xmlns="http://www.w3.org/2000/svg">
<path d="M59.4286 31.9999C59.4289 30.5105 59.3066 29.0236 59.0629 27.5542L50.2858 24.4228L54.2857 15.9999C52.5399 13.5822 50.4178 11.46 48 9.71421L39.5772 13.7142L36.4458 4.93706C33.502 4.44936 30.4981 4.44936 27.5543 4.93706L24.4229 13.7142L16 9.71421C13.5823 11.46 11.4601 13.5822 9.71433 15.9999L13.7143 24.4228L4.93719 27.5542C4.44949 30.498 4.44949 33.5019 4.93719 36.4456L13.7143 39.5771L9.71433 47.9999C11.4601 50.4177 13.5823 52.5398 16 54.2856L24.4229 50.2856L27.5543 59.0628C30.4981 59.5505 33.502 59.5505 36.4458 59.0628L39.5772 50.2856L48 54.2856C50.4178 52.5398 52.5399 50.4177 54.2857 47.9999L50.2858 39.5771L59.0629 36.4456C59.3066 34.9763 59.4289 33.4893 59.4286 31.9999V31.9999Z" stroke="#111111" stroke-width="2" stroke-miterlimit="5"/>
<path d="M32 36.5713C34.5247 36.5713 36.5714 34.5246 36.5714 31.9999C36.5714 29.4752 34.5247 27.4285 32 27.4285C29.4753 27.4285 27.4286 29.4752 27.4286 31.9999C27.4286 34.5246 29.4753 36.5713 32 36.5713Z" stroke="#111111" stroke-width="2" stroke-miterlimit="5"/>
</svg>

<svg width="64" height="64" fill="none" xmlns="http://www.w3.org/2000/svg"><path d="M59.429 32c0-1.49-.122-2.976-.366-4.446l-8.777-3.131 4-8.423A27.896 27.896 0 0048 9.714l-8.423 4-3.131-8.777a27.2 27.2 0 00-8.892 0l-3.131 8.777-8.423-4A27.897 27.897 0 009.714 16l4 8.423-8.777 3.131a27.2 27.2 0 000 8.892l8.777 3.131-4 8.423A27.896 27.896 0 0016 54.286l8.423-4 3.131 8.777a27.2 27.2 0 008.892 0l3.131-8.777 8.423 4A27.894 27.894 0 0054.286 48l-4-8.423 8.777-3.131c.244-1.47.366-2.957.366-4.446v0z" stroke="#111" stroke-width="2" stroke-miterlimit="5"/><path d="M32 36.571a4.571 4.571 0 100-9.143 4.571 4.571 0 000 9.143z" stroke="#111" stroke-width="2" stroke-miterlimit="5"/></svg>
